X: 1
T: Maple Leaf Two-Step
C: Ward Allen
B: Ralph Page Book of Contras p.19
R: 2-step
M: 4/4
L: 1/8
Z: Transcribed by Bruce Osborne, chords by John Chambers
K: C
e2 f2 ^f2 \
|: "C"g4 "F"a4 | "C"ag e2 c4 | "C"e4 dc E2 | "C"G6 c2 \
| "G7"B2 G2 D2 E2 | "G7"F6 EF | "G7"A2 G2 E2 G2 | "C"A2 G4 ef |
| "C"g4 "F"a4 | "C"ag e2 c4 | "C"e4 dc E2 | "C"G6 c2 \
| "G7"B2 G2 D2 E2 | "F"F4 A4 | "G7"G2 Bd gdBd | "C"cBcd c4 :|
|: "C"G6 ^FG | "C"A2 G2 E2 G2 | "C"c4 -cGca | "C"g6 _g2 \
| "G7"f3 g f2 d2 | "G7"B3 c B2 A2 | "G7"G3 A G2 F2 | "C"E2 G2 ^F2 A2 |
| "C"G6 ^FG | "C"A2 G2 E2 G2 | "C"c4 -cGca | "C"g6 _g2 \
| "G7"f3 g f2 d2 | "G7"B3 c B2 A2 | "G7"G2 Bd gdBd | "C"cBcd c2z2 :|
